X: 85
T: Gasp\'e Reel
M: C|
R: reel
K: D
"D"f2ef e2dB| "Bm"AFAF B2A2| "G"g2fg f2ed| "A7"BABc (3BcBA2|
"D"f2ef e2dB| "Bm"AFAF B2A2| "G"g2fg "Em"f2ed| "A7"B2c2 "D"d2d2 :|
|:"A7"e2f2 gfe2| "D"f2g2 a4| "Em"e2f2 gfed| "A7"B2c2 (3BcBA2|
"Em"e2f2 "A7"gfe2| "D"f2g2 a4| "Em"e2f2 "A7"gfed| B2c2 "D"d2d2 :|
